suite-common/icons/assets/icons/discover.svg

<svg xmlns="http://www.w3.org/2000/svg" xml:space="preserve" fill="none" viewBox="0 0 24 24">
  <path fill="#1B1A19" fill-rule="evenodd" d="M9.36 3.281a8.4 8.4 0 0 0-3.22.879c-2.805 1.379-4.618 4.072-4.867 7.23-.138 1.749.34 3.688 1.28 5.203a9.1 9.1 0 0 0 2.854 2.854c1.515.94 3.454 1.418 5.203 1.28 4.391-.346 7.771-3.726 8.117-8.117.214-2.713-.977-5.533-3.073-7.281-1.792-1.493-3.976-2.204-6.294-2.048m1.588 1.54a7.24 7.24 0 0 1 6.05 5.308 7.27 7.27 0 0 1-.947 5.851c-1.077 1.637-2.72 2.738-4.691 3.145-.404.084-.569.095-1.36.095s-.956-.011-1.36-.095c-1.975-.408-3.612-1.505-4.691-3.145a7.24 7.24 0 0 1-1.128-4.928 7.24 7.24 0 0 1 5.308-6.05 7.6 7.6 0 0 1 2.819-.181m6.932.717c0 .009.101.158.224.33.302.42.623.97.864 1.481.187.396.227.45.667.886.794.788 1.217 1.529 1.487 2.605.12.479.151 1.479.063 1.989a5.7 5.7 0 0 1-.87 2.159 7 7 0 0 1-.68.777c-.44.436-.48.49-.667.886a10 10 0 0 1-.865 1.484c-.125.173-.219.322-.211.331.037.036.761-.25 1.188-.471a6.4 6.4 0 0 0 1.68-1.235c1.408-1.408 2.095-3.258 1.955-5.266-.183-2.635-1.96-4.971-4.448-5.849-.371-.131-.387-.136-.387-.107"/>
</svg>

<svg xmlns="http://www.w3.org/2000/svg" xml:space="preserve" fill="none" viewBox="0 0 24 24"><path d="M9.360 3.281 C 8.234 3.357,7.200 3.639,6.140 4.160 C 3.335 5.539,1.522 8.232,1.273 11.390 C 1.135 13.139,1.613 15.078,2.553 16.593 C 3.255 17.724,4.276 18.745,5.407 19.447 C 6.922 20.387,8.861 20.865,10.610 20.727 C 15.001 20.381,18.381 17.001,18.727 12.610 C 18.941 9.897,17.750 7.077,15.654 5.329 C 13.862 3.836,11.678 3.125,9.360 3.281 M10.948 4.821 C 13.845 5.197,16.249 7.306,16.998 10.129 C 17.528 12.126,17.182 14.262,16.051 15.980 C 14.974 17.617,13.331 18.718,11.360 19.125 C 10.956 19.209,10.791 19.220,10.000 19.220 C 9.209 19.220,9.044 19.209,8.640 19.125 C 6.665 18.717,5.028 17.620,3.949 15.980 C 2.993 14.528,2.596 12.791,2.821 11.052 C 3.197 8.155,5.303 5.754,8.129 5.002 C 9.008 4.768,10.030 4.702,10.948 4.821 M17.880 5.538 C 17.880 5.547,17.981 5.696,18.104 5.868 C 18.406 6.288,18.727 6.838,18.968 7.349 C 19.155 7.745,19.195 7.799,19.635 8.235 C 20.429 9.023,20.852 9.764,21.122 10.840 C 21.242 11.319,21.273 12.319,21.185 12.829 C 21.052 13.590,20.742 14.360,20.315 14.988 C 20.199 15.160,19.893 15.509,19.635 15.765 C 19.195 16.201,19.155 16.255,18.968 16.651 C 18.727 17.163,18.406 17.713,18.103 18.135 C 17.978 18.308,17.884 18.457,17.892 18.466 C 17.929 18.502,18.653 18.216,19.080 17.995 C 19.727 17.661,20.227 17.293,20.760 16.760 C 22.168 15.352,22.855 13.502,22.715 11.494 C 22.532 8.859,20.755 6.523,18.267 5.645 C 17.896 5.514,17.880 5.509,17.880 5.538 " fill="#1B1A19" stroke="none" fill-rule="evenodd"></path></svg>
